packages/core/src/svgs/hoshi.svg

<svg width="24" height="24" viewBox="0 0 24 24" fill="none" xmlns="http://www.w3.org/2000/svg">
<g clip-path="url(#clip0_31_11569)">
<path d="M0 0H24V24H0V0Z" fill="#F0F3FA"/>
<path d="M10.6843 11.28L4.73145 7.78711L7.75287 12H9.83573L10.6843 11.28Z" fill="url(#paint0_linear_31_11569)"/>
<path d="M10.6843 12.6943L4.73145 16.2L7.75287 12H9.83573L10.6843 12.6943Z" fill="#A19FA0"/>
<path d="M13.333 11.28L19.2859 7.78711L16.2644 12H14.1816L13.333 11.28Z" fill="url(#paint1_linear_31_11569)"/>
<path d="M13.333 12.6943L19.2859 16.2857L16.2644 12H14.1816L13.333 12.6943Z" fill="url(#paint2_linear_31_11569)"/>
<path d="M9.84007 8.30145L4.71436 7.77002L10.1144 10.9586L11.0015 10.4572L9.84007 8.30145Z" fill="url(#paint3_linear_31_11569)"/>
<path d="M14.16 8.31425L19.2857 7.78711L13.8857 10.9714L12.9985 10.4657L14.16 8.30997V8.31425Z" fill="url(#paint4_linear_31_11569)"/>
<path d="M9.86578 15.7069L4.71436 16.1998L10.1144 13.0112L11.0015 13.5127L9.86578 15.7069Z" fill="url(#paint5_linear_31_11569)"/>
<path d="M14.0529 15.6687L19.2858 16.2858L13.7743 12.9473L12.8872 13.513L14.0529 15.6687Z" fill="url(#paint6_linear_31_11569)"/>
<path d="M14.9056 12.3042C15.7156 12.4199 16.1227 12.1156 16.2256 11.9484L16.1613 11.9056C15.587 12.3599 14.7384 11.9227 14.387 11.6484L13.8599 12.677C14.0013 12.7713 14.4599 13.0327 15.1156 13.3284C15.7713 13.6242 15.887 14.1642 15.8656 14.3999L16.1656 14.5842C16.6541 13.2556 15.5313 12.5099 14.9056 12.3042Z" fill="url(#paint7_linear_31_11569)"/>
<path d="M11.0186 10.4701L9.82715 8.30157L12 3.42871V10.4701H11.0186Z" fill="url(#paint8_linear_31_11569)"/>
<path d="M12.9943 10.5216L14.1429 8.32728L11.9829 3.42871V10.4701L12.9943 10.5216Z" fill="url(#paint9_linear_31_11569)"/>
<path d="M11.0185 13.5298L9.84424 15.7155L11.9871 20.5712V13.5298H11.0142H11.0185Z" fill="url(#paint10_linear_31_11569)"/>
<path d="M12.9472 13.5298L14.1215 15.7155L11.9829 20.5712V13.5298H12.9472Z" fill="url(#paint11_linear_31_11569)"/>
<path d="M8.60982 8.72129C8.21554 8.327 7.58125 8.37843 7.31982 8.45986C8.13411 8.45986 8.67411 9.26129 8.9484 9.797C9.16697 10.2256 9.62554 10.6841 9.82268 10.8641L10.4098 10.1099C9.67697 10.007 9.0984 9.21415 8.60982 8.72129Z" fill="#C3C1C2"/>
<path d="M11.9529 14.3743C13.295 14.3743 14.383 13.2959 14.383 11.9657C14.383 10.6355 13.295 9.55713 11.9529 9.55713C10.6109 9.55713 9.52295 10.6355 9.52295 11.9657C9.52295 13.2959 10.6109 14.3743 11.9529 14.3743Z" fill="url(#paint12_linear_31_11569)"/>
<path fill-rule="evenodd" clip-rule="evenodd" d="M12.0001 14.5716C12.3378 14.5716 12.6722 14.5051 12.9842 14.3758C13.2962 14.2466 13.5796 14.0572 13.8184 13.8184C14.0572 13.5796 14.2466 13.2962 14.3758 12.9842C14.5051 12.6722 14.5716 12.3378 14.5716 12.0001C14.5716 11.6625 14.5051 11.3281 14.3758 11.0161C14.2466 10.7041 14.0572 10.4206 13.8184 10.1819C13.5796 9.94309 13.2962 9.75368 12.9842 9.62445C12.6722 9.49522 12.3378 9.42871 12.0001 9.42871C11.3182 9.42871 10.6641 9.69963 10.1819 10.1819C9.69963 10.6641 9.42871 11.3182 9.42871 12.0001C9.42871 12.6821 9.69963 13.3362 10.1819 13.8184C10.6641 14.3007 11.3182 14.5716 12.0001 14.5716ZM11.953 14.3744C12.2704 14.3756 12.585 14.3141 12.8787 14.1937C13.1723 14.0733 13.4394 13.8962 13.6647 13.6725C13.8899 13.4489 14.0689 13.183 14.1914 12.8902C14.314 12.5974 14.3776 12.2833 14.3787 11.9659C14.3787 10.6373 13.2901 9.55728 11.953 9.55728C11.6352 9.55559 11.3202 9.61658 11.026 9.73676C10.7318 9.85694 10.4642 10.0339 10.2385 10.2577C10.0128 10.4814 9.83346 10.7474 9.71068 11.0405C9.5879 11.3336 9.52412 11.6481 9.523 11.9659C9.523 13.2944 10.6116 14.3744 11.953 14.3744Z" fill="url(#paint13_linear_31_11569)"/>
<path d="M13.4999 10.5H13.0714V11.1429H13.4999V10.5ZM11.9999 11.7857V12.3C11.9956 12.3943 11.9142 12.6429 11.7171 12.8571H12.2571C12.3214 12.78 12.4285 12.5571 12.4285 12.3V11.7857H13.0714V12.2229C13.0714 12.3814 13.0028 12.51 12.8571 12.51V12.9086H12.8742C13.2085 12.9086 13.4999 12.6086 13.4999 12.2443V11.7857H13.7142V11.3571H12.4285V10.7143H11.9999V11.3571H11.1428V11.7857H11.9999ZM10.2856 12V12.7157H10.5642V12.2314H11.3228V12.3171C11.3228 12.7243 10.9585 13.0543 10.5085 13.0543H10.2856V13.2857H10.5556C11.1171 13.2857 11.5714 12.8786 11.5714 12.3771V12H10.2856Z" fill="url(#paint14_linear_31_11569)"/>
</g>
<defs>
<linearGradient id="paint0_linear_31_11569" x1="4.78287" y1="7.93711" x2="8.51145" y2="10.95" gradientUnits="userSpaceOnUse">
<stop stop-color="#ECECEC"/>
<stop offset="1" stop-color="#ABABAB"/>
</linearGradient>
<linearGradient id="paint1_linear_31_11569" x1="14.3959" y1="11.3271" x2="18.5916" y2="7.90282" gradientUnits="userSpaceOnUse">
<stop stop-color="#575354"/>
<stop offset="0.15" stop-color="#949091"/>
<stop offset="1" stop-color="#979394"/>
</linearGradient>
<linearGradient id="paint2_linear_31_11569" x1="19.153" y1="15.7671" x2="14.3102" y2="13.0629" gradientUnits="userSpaceOnUse">
<stop stop-color="#AAAAAA"/>
<stop offset="0.87" stop-color="#BEBEBE"/>
<stop offset="1" stop-color="#3E3C3D"/>
</linearGradient>
<linearGradient id="paint3_linear_31_11569" x1="5.12578" y1="7.95859" x2="10.2258" y2="7.95859" gradientUnits="userSpaceOnUse">
<stop stop-color="#D0D0D0"/>
<stop offset="1" stop-color="#B3AFAE"/>
</linearGradient>
<linearGradient id="paint4_linear_31_11569" x1="18.8742" y1="7.97568" x2="13.7742" y2="7.97568" gradientUnits="userSpaceOnUse">
<stop stop-color="#A8A8A8"/>
<stop offset="1" stop-color="#DCDCDE"/>
</linearGradient>
<linearGradient id="paint5_linear_31_11569" x1="6.8015" y1="14.9269" x2="10.2301" y2="15.9984" gradientUnits="userSpaceOnUse">
<stop stop-color="#D8D8D8"/>
<stop offset="0.73" stop-color="#A8A8A8"/>
</linearGradient>
<linearGradient id="paint6_linear_31_11569" x1="13.7272" y1="13.7058" x2="14.8158" y2="14.5973" gradientUnits="userSpaceOnUse">
<stop stop-color="#312F30"/>
<stop offset="1" stop-color="#858384"/>
</linearGradient>
<linearGradient id="paint7_linear_31_11569" x1="14.3056" y1="12.3813" x2="15.1713" y2="12.5613" gradientUnits="userSpaceOnUse">
<stop stop-color="#373737"/>
<stop offset="1" stop-color="#8B8788"/>
</linearGradient>
<linearGradient id="paint8_linear_31_11569" x1="10.0329" y1="7.75728" x2="11.4643" y2="8.34442" gradientUnits="userSpaceOnUse">
<stop stop-color="#DFDFE1"/>
<stop offset="1" stop-color="#B6B6B6"/>
</linearGradient>
<linearGradient id="paint9_linear_31_11569" x1="13.9286" y1="7.75728" x2="12.0772" y2="7.79157" gradientUnits="userSpaceOnUse">
<stop stop-color="#A8A6A7"/>
<stop offset="0.75" stop-color="#B6B4B5"/>
</linearGradient>
<linearGradient id="paint10_linear_31_11569" x1="9.84424" y1="19.7355" x2="11.6142" y2="14.0484" gradientUnits="userSpaceOnUse">
<stop offset="0.82" stop-color="#898788"/>
<stop offset="0.96" stop-color="#373536"/>
</linearGradient>
<linearGradient id="paint11_linear_31_11569" x1="13.0543" y1="20.5712" x2="12.5529" y2="13.6198" gradientUnits="userSpaceOnUse">
<stop offset="0.75" stop-color="#B3B3B3"/>
<stop offset="1" stop-color="#383637"/>
</linearGradient>
<linearGradient id="paint12_linear_31_11569" x1="9.67723" y1="11.9657" x2="14.2844" y2="11.9657" gradientUnits="userSpaceOnUse">
<stop stop-color="#8E8A8B"/>
<stop offset="1" stop-color="#CCCCCC"/>
</linearGradient>
<linearGradient id="paint13_linear_31_11569" x1="9.433" y1="12.1716" x2="14.2673" y2="12.1716" gradientUnits="userSpaceOnUse">
<stop stop-color="#D9D9D9"/>
<stop offset="0.5" stop-color="#AEACAC"/>
<stop offset="1" stop-color="#393738"/>
</linearGradient>
<linearGradient id="paint14_linear_31_11569" x1="10.4271" y1="13.2343" x2="13.2814" y2="13.2343" gradientUnits="userSpaceOnUse">
<stop stop-color="#A9A7AA"/>
<stop offset="1" stop-color="#DEDEE0"/>
</linearGradient>
<clipPath id="clip0_31_11569">
<rect width="24" height="24" fill="white"/>
</clipPath>
</defs>
</svg>

<svg xmlns="http://www.w3.org/2000/svg" width="24" height="24" fill="none" viewBox="0 0 24 24"><g clip-path="url(#a)"><path fill="#F0F3FA" d="M0 0h24v24H0z"/><path fill="url(#b)" d="M10.684 11.28 4.731 7.787 7.753 12h2.083z"/><path fill="#A19FA0" d="M10.684 12.694 4.731 16.2 7.753 12h2.083z"/><path fill="url(#c)" d="m13.333 11.28 5.953-3.493L16.264 12h-2.082z"/><path fill="url(#d)" d="m13.333 12.694 5.953 3.592L16.264 12h-2.082z"/><path fill="url(#e)" d="M9.84 8.301 4.714 7.77l5.4 3.189.887-.502z"/><path fill="url(#f)" d="m14.16 8.314 5.126-.527-5.4 3.184-.887-.505L14.16 8.31z"/><path fill="url(#g)" d="m9.866 15.707-5.152.493 5.4-3.189.887.502z"/><path fill="url(#h)" d="m14.053 15.669 5.233.617-5.512-3.339-.887.566z"/><path fill="url(#i)" d="M14.906 12.304c.81.116 1.217-.188 1.32-.356l-.065-.042c-.574.454-1.423.017-1.774-.258l-.527 1.029c.141.094.6.356 1.256.651.655.296.771.836.75 1.072l.3.184c.488-1.328-.635-2.074-1.26-2.28"/><path fill="url(#j)" d="M11.019 10.47 9.827 8.302 12 3.429v7.041z"/><path fill="url(#k)" d="m12.994 10.522 1.149-2.195-2.16-4.898v7.041z"/><path fill="url(#l)" d="m11.019 13.53-1.175 2.186 2.143 4.855V13.53h-.973z"/><path fill="url(#m)" d="m12.947 13.53 1.175 2.186-2.14 4.855V13.53z"/><path fill="#C3C1C2" d="M8.61 8.721c-.394-.394-1.029-.343-1.29-.261.814 0 1.354.801 1.628 1.337.219.429.678.887.875 1.067l.587-.754c-.733-.103-1.312-.896-1.8-1.389"/><path fill="url(#n)" d="M11.953 14.374a2.42 2.42 0 0 0 2.43-2.408 2.42 2.42 0 0 0-2.43-2.409 2.42 2.42 0 0 0-2.43 2.409 2.42 2.42 0 0 0 2.43 2.408"/><path fill="url(#o)" fill-rule="evenodd" d="M12 14.572a2.57 2.57 0 1 0 0-5.141 2.57 2.57 0 0 0 0 5.14m-.047-.198a2.417 2.417 0 0 0 2.426-2.408 2.42 2.42 0 0 0-2.426-2.409 2.417 2.417 0 0 0-2.43 2.409c0 1.328 1.089 2.408 2.43 2.408" clip-rule="evenodd"/><path fill="url(#p)" d="M13.5 10.5h-.429v.643h.429zM12 11.786v.514c-.004.094-.086.343-.283.557h.54a.98.98 0 0 0 .172-.557v-.514h.642v.437c0 .158-.068.287-.214.287v.399h.017c.335 0 .626-.3.626-.665v-.458h.214v-.429h-1.286v-.643H12v.643h-.857v.429zM10.286 12v.716h.278v-.485h.759v.086c0 .407-.364.737-.815.737h-.222v.232h.27c.561 0 1.015-.407 1.015-.909V12z"/></g><defs><linearGradient id="b" x1="4.783" x2="8.511" y1="7.937" y2="10.95" gradientUnits="userSpaceOnUse"><stop stop-color="#ECECEC"/><stop offset="1" stop-color="#ABABAB"/></linearGradient><linearGradient id="c" x1="14.396" x2="18.592" y1="11.327" y2="7.903" gradientUnits="userSpaceOnUse"><stop stop-color="#575354"/><stop offset=".15" stop-color="#949091"/><stop offset="1" stop-color="#979394"/></linearGradient><linearGradient id="d" x1="19.153" x2="14.31" y1="15.767" y2="13.063" gradientUnits="userSpaceOnUse"><stop stop-color="#AAA"/><stop offset=".87" stop-color="#BEBEBE"/><stop offset="1" stop-color="#3E3C3D"/></linearGradient><linearGradient id="e" x1="5.126" x2="10.226" y1="7.959" y2="7.959" gradientUnits="userSpaceOnUse"><stop stop-color="#D0D0D0"/><stop offset="1" stop-color="#B3AFAE"/></linearGradient><linearGradient id="f" x1="18.874" x2="13.774" y1="7.976" y2="7.976" gradientUnits="userSpaceOnUse"><stop stop-color="#A8A8A8"/><stop offset="1" stop-color="#DCDCDE"/></linearGradient><linearGradient id="g" x1="6.801" x2="10.23" y1="14.927" y2="15.998" gradientUnits="userSpaceOnUse"><stop stop-color="#D8D8D8"/><stop offset=".73" stop-color="#A8A8A8"/></linearGradient><linearGradient id="h" x1="13.727" x2="14.816" y1="13.706" y2="14.597" gradientUnits="userSpaceOnUse"><stop stop-color="#312F30"/><stop offset="1" stop-color="#858384"/></linearGradient><linearGradient id="i" x1="14.306" x2="15.171" y1="12.381" y2="12.561" gradientUnits="userSpaceOnUse"><stop stop-color="#373737"/><stop offset="1" stop-color="#8B8788"/></linearGradient><linearGradient id="j" x1="10.033" x2="11.464" y1="7.757" y2="8.344" gradientUnits="userSpaceOnUse"><stop stop-color="#DFDFE1"/><stop offset="1" stop-color="#B6B6B6"/></linearGradient><linearGradient id="k" x1="13.929" x2="12.077" y1="7.757" y2="7.792" gradientUnits="userSpaceOnUse"><stop stop-color="#A8A6A7"/><stop offset=".75" stop-color="#B6B4B5"/></linearGradient><linearGradient id="l" x1="9.844" x2="11.614" y1="19.735" y2="14.048" gradientUnits="userSpaceOnUse"><stop offset=".82" stop-color="#898788"/><stop offset=".96" stop-color="#373536"/></linearGradient><linearGradient id="m" x1="13.054" x2="12.553" y1="20.571" y2="13.62" gradientUnits="userSpaceOnUse"><stop offset=".75" stop-color="#B3B3B3"/><stop offset="1" stop-color="#383637"/></linearGradient><linearGradient id="n" x1="9.677" x2="14.284" y1="11.966" y2="11.966" gradientUnits="userSpaceOnUse"><stop stop-color="#8E8A8B"/><stop offset="1" stop-color="#CCC"/></linearGradient><linearGradient id="o" x1="9.433" x2="14.267" y1="12.172" y2="12.172" gradientUnits="userSpaceOnUse"><stop stop-color="#D9D9D9"/><stop offset=".5" stop-color="#AEACAC"/><stop offset="1" stop-color="#393738"/></linearGradient><linearGradient id="p" x1="10.427" x2="13.281" y1="13.234" y2="13.234" gradientUnits="userSpaceOnUse"><stop stop-color="#A9A7AA"/><stop offset="1" stop-color="#DEDEE0"/></linearGradient><clipPath id="a"><path fill="#fff" d="M0 0h24v24H0z"/></clipPath></defs></svg>
